icons/desktop/16/svg/globe-16.svg

<svg width="16" height="16" viewBox="0 0 16 16" fill="none" xmlns="http://www.w3.org/2000/svg">
<path fill-rule="evenodd" clip-rule="evenodd" d="M8 0C12.4183 0 16 3.58172 16 8C16 12.4183 12.4183 16 8 16C3.58172 16 0 12.4183 0 8C0 3.58172 3.58172 0 8 0ZM8 7.75C7.27155 7.75 6.43194 7.78263 5.50293 7.87207C5.50234 7.91465 5.5 7.95728 5.5 8C5.5 10.4132 6.45174 12.6025 7.99902 14.2197C9.54699 12.6025 10.501 10.4137 10.501 8C10.501 7.95662 10.4977 7.91335 10.4971 7.87012C9.71354 7.79462 8.87936 7.75 8 7.75ZM4 8.05859C3.21793 8.18012 2.38966 8.34535 1.52539 8.56738C1.75448 11.2162 3.57176 13.4092 6.02051 14.1914C4.76193 12.4703 4.01255 10.3514 4 8.05859ZM11.999 8.05957C11.9863 10.3523 11.2372 12.4704 9.97852 14.1914C12.4274 13.4095 14.2441 11.217 14.4736 8.56836C13.7468 8.38178 12.9181 8.2024 11.999 8.05957ZM9.98047 1.80762C10.9763 3.16914 11.652 4.77981 11.8975 6.52832C12.8255 6.6611 13.671 6.83178 14.4248 7.0127C14.0501 4.55388 12.2983 2.54829 9.98047 1.80762ZM6.02051 1.80762C3.70282 2.54788 1.94956 4.55242 1.57422 7.01074C2.45863 6.79836 3.30475 6.64143 4.10254 6.52734C4.34806 4.77904 5.02472 3.16895 6.02051 1.80762ZM7.99902 1.7793C6.81238 3.01885 5.97849 4.59476 5.65332 6.35059C6.51944 6.27647 7.30733 6.25 8 6.25C8.82042 6.25 9.60363 6.28707 10.3457 6.35059C10.0202 4.59447 9.18615 3.01891 7.99902 1.7793Z" fill="black"/>
</svg>

<!-- This Source Code Form is subject to the terms of the Mozilla Public
   - License, v. 2.0. If a copy of the MPL was not distributed with this
   - file, You can obtain one at http://mozilla.org/MPL/2.0/. -->
<svg xmlns="http://www.w3.org/2000/svg" width="16" height="16" fill="context-fill" fill-opacity="context-fill-opacity" viewBox="0 0 16 16">
    <path fill-rule="evenodd" d="M8 0a8 8 0 1 1 0 16A8 8 0 0 1 8 0m0 7.75c-.728 0-1.568.033-2.497.122Q5.502 7.936 5.5 8c0 2.413.952 4.602 2.499 6.22A8.97 8.97 0 0 0 10.501 8q-.001-.065-.004-.13A26 26 0 0 0 8 7.75m-4 .309c-.782.121-1.61.286-2.475.508a6.5 6.5 0 0 0 4.496 5.624A10.45 10.45 0 0 1 4 8.06m7.999 0a10.45 10.45 0 0 1-2.02 6.132 6.5 6.5 0 0 0 4.495-5.623 26 26 0 0 0-2.475-.508M9.98 1.809a10.45 10.45 0 0 1 1.918 4.72 28 28 0 0 1 2.527.485A6.51 6.51 0 0 0 9.98 1.808m-3.96 0A6.51 6.51 0 0 0 1.575 7.01c.885-.213 1.73-.37 2.529-.484a10.45 10.45 0 0 1 1.918-4.72M8 1.779a8.97 8.97 0 0 0-2.346 4.572 27.5 27.5 0 0 1 4.693 0 8.97 8.97 0 0 0-2.347-4.572" clip-rule="evenodd" />
</svg>
